rospo-icon-theme-classic-common/22x22/apps/microscope.svg

<svg height="22" viewBox="0 0 22 22" width="22" xmlns="http://www.w3.org/2000/svg"><path d="m5.3143243 18.500042h5.4322887 2.077835 4.861437c.725742 0 1.314115.671591 1.314115 1.499979 0 .828389-.588373 1.499979-1.314115 1.499979h-4.861437-3.070343-4.4397807c-.7257419 0-1.3141152-.67159-1.3141152-1.499979 0-.828438.5883293-1.499979 1.3141152-1.499979z" opacity=".2"/><path d="m10.521652 12.288254c.0447-.169143.155715-.313903.308709-.402429l2.238444-1.294843c.318523-.184257.728619-.0793.91578.234515l1.423248 2.386893c.187071.313858.08051.717649-.238101.901992l-2.238443 1.294844c-.137963.07978-.293009.105352-.439714.08325-.192113-.029-.369952-.139796-.476066-.31777l-1.423247-2.386892c-.08988-.15069-.11526-.330421-.07061-.499564z" opacity=".2"/><path d="m8.3595233 4.3732857c-.3259419-.0072198-.6549273.110312-.9091668.3535106l-2.1786806 2.0839555c-2.93647 2.8091592-3.0396669 7.4833062-.2304658 10.4197772l.7363182.76952h3.5253417l-2.4208651-2.531215c-1.8379798-1.921296-1.7699318-4.979266.1513649-6.8172879l2.1786802-2.0839549c.508394-.4863543.52546-1.2923205.039065-1.8007564-.243198-.254197-.5656472-.3863302-.8915892-.3935491z" opacity=".2"/><path d="m-17 17h5v1h-5z" fill="#e4e4e4" transform="scale(-1 1)"/><path d="m9.669921 20.75001h7.689389c.703564 0 1.273957-.320396 1.273957-1.023959 0-.703564-.570393-1.273957-1.273957-1.273957h-7.145113l-3.3318631-3.48287c-1.8379799-1.921296-1.7702053-4.979684.1510914-6.8177054l2.1781677-2.083726c.508394-.4863542.526272-1.2927685.039875-1.8012044-.4863968-.5083938-1.2927261-.5262717-1.801205-.0398744l-2.1781681 2.0837254c-2.9364699 2.8091598-3.0400426 7.4836458-.2308413 10.4201148l3.7081053 3.876141c.2403536.251223.5728991.143315.9205621.143315z" fill="#3f3f3f"/><path d="m10.521652 11.788261c.0447-.169143.155715-.313903.308709-.402429l2.238444-1.294843c.318523-.184257.728619-.0793.91578.234515l1.423248 2.386893c.187071.313858.08051.717648-.238101.901992l-2.238443 1.294844c-.137963.07978-.293009.105352-.439714.08325-.192113-.029-.369952-.139796-.476066-.31777l-1.423247-2.386892c-.08988-.15069-.11526-.330421-.07061-.499564z" fill="#4f4f4f"/><path d="m5.0694757 4.1256047c.142859-.5598402.4911101-1.0295077.9806448-1.3224636l1.6788071-1.0047039c.4201162-.2513766.9162857-.3484792 1.3971534-.2734338.63542.099173 1.186452.4797242 1.511772 1.0441279l4.276512 7.4199007c.0836.144978.107196.317803.06564.480485-.04151.162682-.144725.301914-.287003.387058l-4.271329 2.556149c-.128262.07674-.272406.101328-.408795.08007-.178605-.02789-.343939-.134456-.442593-.305632l-4.2765064-7.4198552c-.2875005-.498866-.3671614-1.0818619-.2243029-1.6417021z" opacity=".2"/><path d="m5.0694757 3.6256117c.142859-.5598403.4911101-1.0295077.9806448-1.3224636l1.6788071-1.0047039c.4201162-.2513766.9162857-.3484793 1.3971534-.2734339.63542.099173 1.186452.4797242 1.511772 1.044128l4.276512 7.4199007c.0836.144978.107196.317803.06564.480485-.04151.162682-.144725.301914-.287003.387058l-4.271329 2.556149c-.128262.07674-.272406.101328-.408795.08007-.178605-.02789-.343939-.134456-.442593-.305632l-4.2765064-7.4198552c-.2875005-.4988661-.3671614-1.0818619-.2243029-1.6417021z" fill="#ff9b32"/><path d="m8.7638147 1.0002858c-.362107.00743-.720055.1093149-1.0351421.2978474l-1.6786876 1.0048688c-.4895346.2929559-.8375958.7624069-.9804548 1.3222472-.069523.27245-.08399.5502248-.049804.8212775.01118-.107284.022665-.214936.049804-.3212845.142859-.5598402.4909202-1.0292913.9804548-1.3222472l1.6786876-1.0048688c.4201162-.2513766.9165737-.3484791 1.3974414-.2734337.63542.099173 1.186378.4805036 1.511698 1.0449073l4.276307 7.4198182c.01224.02123.01379.04605.02344.06836.01286-.03009.03378-.05573.04199-.08789.04155-.162683.01817-.335484-.06543-.480462l-4.276307-7.4198192c-.32532-.5644038-.876278-.9457342-1.511698-1.0449073-.120217-.0187614-.241597-.0268916-.3622993-.0244137z" fill="#fff" opacity=".2"/><path d="m5.3143243 18.000049h5.4322887 2.077835 4.861437c.725742 0 1.314115.671591 1.314115 1.499979 0 .828389-.588373 1.499979-1.314115 1.499979h-4.861437-3.070343-4.4397807c-.7257419 0-1.3141152-.67159-1.3141152-1.499979 0-.828438.5883293-1.499979 1.3141152-1.499979z" fill="#ff9b32"/><path d="m5.5000003 11.5c1.9299066 0 3.4999997-1.570093 3.4999997-3.5000001 0-1.9299064-1.5700931-3.5000003-3.4999997-3.5000003s-3.5000003 1.5700939-3.5000003 3.5000003c0 1.9299071 1.5700937 3.5000001 3.5000003 3.5000001z" opacity=".2"/><path d="m5.5000003 11c1.9299066 0 3.4999997-1.570093 3.4999997-3.5000001 0-1.9299064-1.5700931-3.5000003-3.4999997-3.5000003s-3.5000003 1.5700939-3.5000003 3.5000003c0 1.9299071 1.5700937 3.5000001 3.5000003 3.5000001z" fill="#4f4f4f"/><path d="m5.4999791 6.5000418c.8270939 0 1.499979.6728852 1.499979 1.4999791 0 .827094-.6728851 1.4999791-1.499979 1.4999791-.827094 0-1.4999791-.6728851-1.4999791-1.4999791 0-.8270939.6728851-1.4999791 1.4999791-1.4999791z" opacity=".2"/><path d="m5.4999791 6.0000418c.8270939 0 1.499979.6728852 1.499979 1.4999791 0 .827094-.6728851 1.4999791-1.499979 1.4999791-.827094 0-1.4999791-.6728851-1.4999791-1.4999791 0-.8270939.6728851-1.4999791 1.4999791-1.4999791z" fill="#e4e4e4"/><path d="m5.3146438 18.000049c-.7257859 0-1.3144347.67154-1.3144347 1.499979 0 .0855.00944.168401.021485.249996.104606-.708968.6420771-1.249982 1.2929505-1.249982h5.4315654 2.078096 4.86126c.650834 0 1.188337.541042 1.29295 1.249982.012041-.081595.021484-.164494.021484-.249996 0-.828389-.588693-1.499979-1.314435-1.499979h-4.86126-2.078096z" fill="#fff" opacity=".2"/></svg>

<svg xmlns="http://www.w3.org/2000/svg" width="22" height="22" x="0" y="0" version="1.1" viewBox="0 0 22 22" xml:space="preserve">
 <path style="opacity:0.2" d="m 5.3143243,18.500042 5.4322887,0 2.077835,0 4.861437,0 C 18.411627,18.500042 19,19.171633 19,20.000021 19,20.82841 18.411627,21.5 17.685885,21.5 l -4.861437,0 -3.070343,0 -4.4397807,0 c -0.7257419,0 -1.3141152,-0.67159 -1.3141152,-1.499979 0,-0.828438 0.5883293,-1.499979 1.3141152,-1.499979 z"/>
 <path d="m 10.521652,12.288254 c 0.0447,-0.169143 0.155715,-0.313903 0.308709,-0.402429 l 2.238444,-1.294843 c 0.318523,-0.184257 0.728619,-0.0793 0.91578,0.234515 l 1.423248,2.386893 c 0.187071,0.313858 0.08051,0.717649 -0.238101,0.901992 l -2.238443,1.294844 c -0.137963,0.07978 -0.293009,0.105352 -0.439714,0.08325 -0.192113,-0.029 -0.369952,-0.139796 -0.476066,-0.31777 l -1.423247,-2.386892 c -0.08988,-0.15069 -0.11526,-0.330421 -0.07061,-0.499564 z" style="opacity:0.2"/>
 <path style="opacity:0.2" d="M 8.3595233,4.3732857 C 8.0335814,4.3660659 7.704596,4.4835977 7.4503565,4.7267963 L 5.2716759,6.8107518 C 2.3352059,9.619911 2.232009,14.294058 5.0412101,17.230529 l 0.7363182,0.76952 3.5253417,0 -2.4208651,-2.531215 C 5.0440251,13.547538 5.1120731,10.489568 7.0333698,8.6515461 L 9.21205,6.5675912 C 9.720444,6.0812369 9.73751,5.2752707 9.251115,4.7668348 9.007917,4.5126378 8.6854678,4.3805046 8.3595258,4.3732857 Z"/>
 <rect width="5" height="1" x="-17" y="17" transform="scale(-1,1)" style="fill:#cccccc"/>
 <path style="fill:#3f3f3f" d="m 9.669921,20.75001 7.689389,0 c 0.703564,0 1.273957,-0.320396 1.273957,-1.023959 0,-0.703564 -0.570393,-1.273957 -1.273957,-1.273957 l -7.145113,0 -3.3318631,-3.48287 C 5.044354,13.047928 5.1121286,9.98954 7.0334253,8.1515186 L 9.211593,6.0677926 C 9.719987,5.5814384 9.737865,4.7750241 9.251468,4.2665882 8.7650712,3.7581944 7.9587419,3.7403165 7.450263,4.2267138 L 5.2720949,6.3104392 C 2.335625,9.119599 2.2320523,13.794085 5.0412536,16.730554 l 3.7081053,3.876141 C 8.9897125,20.857918 9.322258,20.75001 9.669921,20.75001 Z"/>
 <path style="fill:#4f4f4f" d="m 10.521652,11.788261 c 0.0447,-0.169143 0.155715,-0.313903 0.308709,-0.402429 l 2.238444,-1.294843 c 0.318523,-0.184257 0.728619,-0.0793 0.91578,0.234515 l 1.423248,2.386893 c 0.187071,0.313858 0.08051,0.717648 -0.238101,0.901992 l -2.238443,1.294844 c -0.137963,0.07978 -0.293009,0.105352 -0.439714,0.08325 -0.192113,-0.029 -0.369952,-0.139796 -0.476066,-0.31777 l -1.423247,-2.386892 c -0.08988,-0.15069 -0.11526,-0.330421 -0.07061,-0.499564 z"/>
 <path d="M 5.0694757,4.1256047 C 5.2123347,3.5657645 5.5605858,3.096097 6.0501205,2.8031411 L 7.7289276,1.7984372 C 8.1490438,1.5470606 8.6452133,1.449958 9.126081,1.5250034 c 0.63542,0.099173 1.186452,0.4797242 1.511772,1.0441279 l 4.276512,7.4199007 c 0.0836,0.144978 0.107196,0.317803 0.06564,0.480485 -0.04151,0.162682 -0.144725,0.301914 -0.287003,0.387058 l -4.271329,2.556149 c -0.128262,0.07674 -0.272406,0.101328 -0.408795,0.08007 C 9.834273,13.464904 9.668939,13.358338 9.570285,13.187162 L 5.2937786,5.7673068 C 5.0062781,5.2684408 4.9266172,4.6854449 5.0694757,4.1256047 Z" style="opacity:0.2"/>
 <path style="fill:#ff9b32" d="M 5.0694757,3.6256117 C 5.2123347,3.0657714 5.5605858,2.596104 6.0501205,2.3031481 L 7.7289276,1.2984442 C 8.1490438,1.0470676 8.6452133,0.9499649 9.126081,1.0250103 c 0.63542,0.099173 1.186452,0.4797242 1.511772,1.044128 l 4.276512,7.4199007 c 0.0836,0.144978 0.107196,0.317803 0.06564,0.480485 -0.04151,0.162682 -0.144725,0.301914 -0.287003,0.387058 l -4.271329,2.556149 c -0.128262,0.07674 -0.272406,0.101328 -0.408795,0.08007 C 9.834273,12.964911 9.668939,12.858345 9.570285,12.687169 L 5.2937786,5.2673138 C 5.0062781,4.7684477 4.9266172,4.1854519 5.0694757,3.6256117 Z"/>
 <path style="opacity:0.2;fill:#ffffff" d="m 8.7638147,1.0002858 c -0.362107,0.00743 -0.720055,0.1093149 -1.0351421,0.2978474 L 6.049985,2.303002 C 5.5604504,2.5959579 5.2123892,3.0654089 5.0695302,3.6252492 c -0.069523,0.27245 -0.08399,0.5502248 -0.049804,0.8212775 0.01118,-0.107284 0.022665,-0.214936 0.049804,-0.3212845 C 5.2123892,3.565402 5.5604504,3.0959509 6.049985,2.802995 L 7.7286726,1.7981262 C 8.1487888,1.5467496 8.6452463,1.4496471 9.126114,1.5246925 c 0.63542,0.099173 1.186378,0.4805036 1.511698,1.0449073 l 4.276307,7.4198182 c 0.01224,0.02123 0.01379,0.04605 0.02344,0.06836 0.01286,-0.03009 0.03378,-0.05573 0.04199,-0.08789 0.04155,-0.162683 0.01817,-0.335484 -0.06543,-0.480462 L 10.637812,2.0696068 C 10.312492,1.505203 9.761534,1.1238726 9.126114,1.0246995 9.005897,1.0059381 8.884517,0.9978079 8.7638147,1.0002858 Z"/>
 <path d="m 5.3143243,18.000049 5.4322887,0 2.077835,0 4.861437,0 c 0.725742,0 1.314115,0.671591 1.314115,1.499979 0,0.828389 -0.588373,1.499979 -1.314115,1.499979 l -4.861437,0 -3.070343,0 -4.4397807,0 c -0.7257419,0 -1.3141152,-0.67159 -1.3141152,-1.499979 0,-0.828438 0.5883293,-1.499979 1.3141152,-1.499979 z" style="fill:#ff9b32"/>
 <path d="M 5.5000003,11.5 C 7.4299069,11.5 9,9.929907 9,7.9999999 9,6.0700935 7.4299069,4.4999996 5.5000003,4.4999996 3.5700937,4.4999996 2,6.0700935 2,7.9999999 2,9.929907 3.5700937,11.5 5.5000003,11.5 Z" style="opacity:0.2"/>
 <path style="fill:#4f4f4f" d="M 5.5000003,11 C 7.4299069,11 9,9.429907 9,7.4999999 9,5.5700935 7.4299069,3.9999996 5.5000003,3.9999996 3.5700937,3.9999996 2,5.5700935 2,7.4999999 2,9.429907 3.5700937,11 5.5000003,11 Z"/>
 <path d="m 5.4999791,6.5000418 c 0.8270939,0 1.499979,0.6728852 1.499979,1.4999791 C 6.9999581,8.8271149 6.327073,9.5 5.4999791,9.5 4.6728851,9.5 4,8.8271149 4,8.0000209 4,7.172927 4.6728851,6.5000418 5.4999791,6.5000418 Z" style="opacity:0.2"/>
 <path style="fill:#cccccc" d="m 5.4999791,6.0000418 c 0.8270939,0 1.499979,0.6728852 1.499979,1.4999791 C 6.9999581,8.3271149 6.327073,9 5.4999791,9 4.6728851,9 4,8.3271149 4,7.5000209 4,6.672927 4.6728851,6.0000418 5.4999791,6.0000418 Z"/>
 <path style="opacity:0.2;fill:#ffffff" d="m 5.3146438,18.000049 c -0.7257859,0 -1.3144347,0.67154 -1.3144347,1.499979 0,0.0855 0.00944,0.168401 0.021485,0.249996 0.104606,-0.708968 0.6420771,-1.249982 1.2929505,-1.249982 l 5.4315654,0 2.078096,0 4.86126,0 c 0.650834,0 1.188337,0.541042 1.29295,1.249982 C 18.990557,19.668429 19,19.58553 19,19.500028 19,18.671639 18.411307,18.000049 17.685565,18.000049 l -4.86126,0 -2.078096,0 -5.4315652,0 z"/>
</svg>
